!!!COM: Palestrina, Giovanni Perluigi da
!!!OPR: Missa Ascendo ad Patrem
!!!OMD: Credo
!!!OTL: Crucifixus
**kern	**kern	**kern	**kern
*Itenor	*Icalto	*Icant	*Icant
!Tenor	!Altus	!Cantus 2	!Cantus 1
*clefGv2	*clefG2	*clefG2	*clefG2
*k[]	*k[]	*k[]	*k[]
*C:ion	*C:ion	*C:ion	*C:ion
*M4/2	*M4/2	*M4/2	*M4/2
=67	=67	=67	=67
0G	0g	0b	0dd
=68	=68	=68	=68
1G	1g	1dd	1b
1c	1g	1cc	1ee
=69	=69	=69	=69
1d	1f#	1a	1dd
2.G	2.g	2.dd	2.b
4G	4g	4dd	4b
=70	=70	=70	=70
2G	2g	2dd	2b
2A	2e	2cc	2a
4G	4g	1b	[1dd
4A	4f	.	.
4B	4d	.	.
4c	4e	.	.
=71	=71	=71	=71
4d	4f	2.a	2dd]
4e	4g	.	.
2.f	2.a	.	4cc
.	.	4b	4b
.	.	4cc	4a
8e	4g	4dd	4b
8d	.	.	.
2c	[2g	2ee	4cc
.	.	.	4b
=72	=72	=72	=72
1d	2g]	1dd	4a
.	.	.	4g
.	2f#	.	2a
1G	1g	2r	2b
.	.	2b	2dd
=73	=73	=73	=73
0r	0r	2a	2cc
.	.	2b	2dd
.	.	4g	4b
.	.	4a	4a
.	.	4b	4g
.	.	4cc	4a
=74	=74	=74	=74
1g	2r	1dd	4b
.	.	.	4cc
.	2b	.	1dd
2f#	2a	2r	.
2g	2b	2gg	2dd
=75	=75	=75	=75
4e	2g	2.gg	2.ee
4d	.	.	.
4c	1cc	.	.
4d	.	4ff	4ff
4e	.	2ee	2.gg
4f	.	.	.
[2g	[2b	4dd	.
.	.	4cc	8ff
.	.	.	8ee
=76	=76	=76	=76
2g]	4b]	4b	2dd
.	4g	4a	.
2e	2.cc	2g	1ee
1f	.	1a	.
.	4b	.	.
.	[2a	.	2dd
=77	=77	=77	=77
1e	2a]	1b	0ee
.	2g#	.	.
2r	2a	2cc	.
[2a	[2cc	[2ee	.
=78	=78	=78	=78
2a]	2cc]	2ee]	1r
2g	2b	2ee	.
2f	2a	2dd	2r
2e	2g	2cc	[2gg
=79	=79	=79	=79
1d	2.a	1dd	2gg]
.	.	.	2ff
.	4b	.	.
2c	2cc	2.gg	2ee
2B	[2g	.	2dd
.	.	4ff	.
=80	=80	=80	=80
2.c	4g]	4ee	2cc
.	4f	4dd	.
.	4e	2.cc	2.ee
4B	4d	.	.
1A	1c	.	.
.	.	4dd	4dd
.	.	[2ee	2cc
=81	=81	=81	=81
0G	[0g	2ee]	2b
.	.	4dd	1cc
.	.	4cc	.
.	.	1dd	.
.	.	.	2b
=82	=82	=82	=82
0c	1g]	0ee	1cc
.	2r	.	2r
.	2c	.	2cc
=83	=83	=83	=83
0r	2f	0r	2a
.	2g	.	2b
.	2a	.	2cc
.	2b	.	2dd
=84	=84	=84	=84
2r	1cc	2r	1ee
2c	.	2g	.
2A	2cc	2cc	2ee
2B	2b	2dd	2dd
=85	=85	=85	=85
2c	1a	2ee	2cc
2d	.	2ff	2a
1e	4g	1gg	2r
.	4a	.	.
.	4b	.	[2ee
.	4a	.	.
=86	=86	=86	=86
2e	4b	2gg	4ee]
.	4cc	.	4ee
2d	2dd	2ff	2a
1c	1g	1ee	1cc
=87	=87	=87	=87
2g	2r	1dd	2b
2g	2b	.	2dd
1c	1cc	1r	1ee
=88	=88	=88	=88
2G	2b	2r	2dd
2G	1g	2dd	2b
4c	.	1ee	2cc
4d	.	.	.
4e	[2g	.	4b
4f	.	.	4a
=89	=89	=89	=89
1g	4g]	2dd	4b
.	4a	.	4cc
.	4b	2b	4dd
.	4g	.	4ee
2.f	[1a	1cc	[1ff
4e	.	.	.
=90	=90	=90	=90
1d	2a]	1dd	1ff]
.	2b	.	.
[1c	2.cc	2g	2ee
.	.	[2cc	[2ee
.	8b	.	.
.	8a	.	.
=91	=91	=91	=91
1c]	1g	4cc]	4ee]
.	.	4dd	4ff
.	.	2ee	2gg
2r	1r	2dd	2ff
[2c	.	2cc	[2ee
=92	=92	=92	=92
4c]	0r	2.gg	4ee]
4d	.	.	4dd
2e	.	.	4b
.	.	8ff	4cc
.	.	8ee	.
2d	.	4ff	4dd
.	.	4dd	4a
2c	.	2ee	2cc
=93	=93	=93	=93
2.g	1r	2dd	1b
.	.	2dd	.
8f	.	.	.
8e	.	.	.
4f	2r	2dd	2a
4d	.	.	.
2e	2g	2cc	2g
=94	=94	=94	=94
1d	2g	2.dd	2a
.	2f#	.	2a
.	.	4dd	.
1r	2.g	2dd	2.b
.	.	[2ee	.
.	4g	.	4b
=95	=95	=95	=95
0r	2g	4ee]	2b
.	.	4dd	.
.	2.a	2.ff	2.cc
.	4g	4ee	4b
.	2e	[2ee	2g
=96	=96	=96	=96
2r	1f	2ee]	1a
2d	.	2dd	.
2d	2e	1ee	2r
2c#	2e	.	2a
=97	=97	=97	=97
2.d	2.f	1r	2.a
4d	4f	.	4b
2e	2g	2r	2cc
[2f	[2a	[2ff	[2dd
=98	=98	=98	=98
4f]	4a]	4ff]	4dd]
4e	4g	4gg	4cc
2c	2g	2ee	1cc
1d	1f	2.ff	.
.	.	.	2b
.	.	8ee	.
.	.	8dd	.
=99	=99	=99	=99
1c	2g	2ee	2cc
.	2c	2cc	2ee
1r	2.g	2.b	2.dd
.	4g	4b	4dd
=100	=100	=100	=100
0r	2g	2b	2dd
.	2d	2dd	2ff
.	2e	2cc	2ee
.	2g	2b	2dd
=101	=101	=101	=101
1r	1c	4cc	4ee
.	.	4b	4dd
.	.	4a	4cc
.	.	4g	4b
2r	1d	2f	2a
2G	.	2b-	2dd
=102	=102	=102	=102
2.d	2.f	2.a	2.dd
4d	4f	4a	4dd
2d	2f	2a	2dd
2A	2e	2a	2cc
=103	=103	=103	=103
2B	2d	1g	2dd
1c	4c	.	1ee
.	4d	.	.
.	4e	1g	.
.	4f	.	.
2B	[2g	.	2dd
=104	=104	=104	=104
1A	2g]	1a	1cc
.	2f#	.	.
1G	1g	2dd	2b
.	.	2gg	2g
=105	=105	=105	=105
1r	1r	4ee	4a
.	.	4dd	4b
.	.	4ee	4cc
.	.	4ff	4dd
2r	2r	1gg	1ee
2c	2cc	.	.
=106	=106	=106	=106
4d	4a	1ff	2dd
4e	4g	.	.
4f	4a	.	2.cc
4g	4b	.	.
1a	1cc	2ee	.
.	.	.	4b
.	.	[2ff	[2a
=107	=107	=107	=107
1e	2b	4ff]	2a]
.	.	4ee	.
.	1cc	1ee	2g
2f	.	.	2a
2f	4b	2dd	2a
.	4a	.	.
=108	=108	=108	=108
0e	2g#	0ee	1cc
.	1a	.	.
.	.	.	1b
.	2g#	.	.
=109	=109	=109	=109
2r	1a	2r	2cc#
1d	.	1ff	1dd
.	2r	.	.
2A	[2a	2cc	2ee
=110	=110	=110	=110
1d	2a]	1dd	1ff
.	2b	.	.
4c	1cc	[1gg	[1ee
4d	.	.	.
4e	.	.	.
4f	.	.	.
=111	=111	=111	=111
2g	2cc	1gg]	2ee]
2G	2b	.	2dd
2A	2a	1r	2cc
2B	[2g	.	2b
=112	=112	=112	=112
2c	2g]	2r	1a
2d	2f#	1dd	.
1G	1g	.	1b
.	.	2ee	.
=113	=113	=113	=113
1d	2r	1ff	2a
.	2f	.	2b
[1c	4g	[1ee	1cc
.	4f	.	.
.	4e	.	.
.	4d	.	.
=114	=114	=114	=114
2c]	2c	2ee]	2g
2B	2d	2dd	2g
2A	1e	2cc	2a
2G	.	2b	2b
=115	=115	=115	=115
1A	2e	0a	0cc
.	4d	.	.
.	4c	.	.
1F	1f	.	.
=116	=116	=116	=116
0c	0e	0g	0cc
*-	*-	*-	*-
!!!CDT: 1525/^1526/-1594/2/2
!!!OCY: Italia
!!!AGN: Mass (Parody)
!!!AST: renaissance, vocal
!!!ASW: Motet 1572 (Palestrina)
!!!PWK: Masses, Book 12
!!!RNB: Cadence finals: G,D
!!!YOR: Le Opere Complete, v. 29, p. 54
!!!YOO: Rome, Italy: Fratelli Scalera
!!!END: 1992//
!!!EED: John Miller
!!!YEC: Copyright 2000, John Miller
!!!YEN: United States of America
!!!YEM: Rights to all derivative electronic formats reserved.
!!!YEM: Refer to licensing agreement for further details.
!!!YEM: This file must be accompanied by the licensing agreement.
!!!YEM: A copy of the licensing agreement may be found at http://www.music-cog.ohio-state.edu/HumdrumDatabases/Palestrina/license.txt
!!!EMD: converted to Humdrum by Bret Aarden
